X:1
T:Title
%%score 1 2
L:1/8
Q:1/4=95
M:4/4
K:Eb
V:1 treble nm="Grand Piano, Soprano"
V:2 bass nm="Choir Pad, He Is Coming Out 2 Meet Us"
V:1
 [EG]>[FA] [GB]2 [Ac]2 [GB]2 | [EG]2 [DF]>[FA] [EG]>[DF] E2 | [EG]>[FA] [GB]2 [Ee]2 [Ed]2 | %3
w: By~Chester~G.~Allen * * * *|||
 [Ec]2 [EB]>[Ec] [EB]>[EG] [DF]2 | [DB]>[FA] [EG]>[DF] [EG]>[FA] [GB]2 | %5
w: ||
 [EG]2 [EA]>[EG] [EA]>[EB] [Ac]2 | [ce]>[Ac] [GB]2 [EG]2 [DB]>[FA] | [EG]>[DF] E6 | %8
w: |||
 z2 [GB]>[FA] [EG]>[FA] [GB]2 | [Ee]2 [Ed]2 [Ec]2 [EB]2- | [EB]2 [FA]>[EG] [DF]>[EG] [FA]2 | %11
w: |||
 [DB]2 [Fd]>[Ge] [Af]>[Fd] [Ge]2 | [GB]2 [GB]>[Ge] [Bd]>[Ac] B2 | %13
w: ||
 [EG]2 [EA]>[EG] [EA]>[EB] [Ac]2- | [Ac]2 [Ac]>[ce] [Bd]>[Ac] [GB]>[FA] | [EG]>[DF] E6- | %16
w: |||
 E2 z2 z4 |] %17
w: |
V:2
 [E,B,]>[E,B,] [E,E]2 [E,E]2 [E,E]2 | [E,B,]2 [B,,B,]>[B,,B,] [B,,B,]>[B,,A,] [E,G,]2 | %2
 [E,B,]>[E,B,] [E,E]2 [E,C]2 [E,B,]2 | [E,A,]2 [E,G,]>[E,A,] [E,G,]>[E,B,] [B,,B,]2 | %4
 [B,,B,]>[B,,B,] [E,B,]>[E,B,] [E,B,]>[E,B,] [E,E]2 | [E,E]2 [A,C]>[A,B,] [A,C]>[A,D] [A,E]2 | %6
 [A,E]>[A,E] [B,E]2 B,2 [B,,B,]>[B,,B,] | [B,,B,]>[B,,A,] [E,G,]6 | %8
 z2 [E,E]>[E,E] [E,E]>[E,E] [E,E]2 | [E,C]2 [E,B,]2 [E,A,]2 [E,G,]2- | %10
 [E,G,]2 [B,,B,]>[B,,B,] [B,,B,]>[B,,B,] [B,,B,]2 | %11
 [B,,B,]2 [B,,B,]>[B,,B,] [B,,B,]>[B,,B,] [E,B,]2 | [E,B,]2 [E,E]>[E,E] [E,E]>[E,E] [E,E]2 | %13
 [E,B,]2 [A,C]>[A,B,] [A,C]>[A,D] [A,E]2- | [A,E]2 [A,E]>[A,E] [A,E]>[A,E] [B,E]>B, | %15
 [B,,B,]>[B,,A,] [E,G,]6- | [E,G,]2 z2 z4 |] %17

